svg/l/HK.svg

<svg width="32" height="24" viewBox="0 0 32 24" fill="none" xmlns="http://www.w3.org/2000/svg">
<g clip-path="url(#clip0_270_67538)">
<rect width="32" height="24" fill="white"/>
<path fill-rule="evenodd" clip-rule="evenodd" d="M0 0V24H32V0H0Z" fill="#EA1A1A"/>
<mask id="mask0_270_67538" style="mask-type:luminance" maskUnits="userSpaceOnUse" x="0" y="0" width="32" height="24">
<path fill-rule="evenodd" clip-rule="evenodd" d="M0 0V24H32V0H0Z" fill="white"/>
</mask>
<g mask="url(#mask0_270_67538)">
<path fill-rule="evenodd" clip-rule="evenodd" d="M15.8695 11.5748C15.8695 11.5748 10.0798 6.4115 16.9887 3.40312C16.9887 3.40312 18.9979 5.61974 17.4906 8.1082C16.9961 8.92437 16.579 9.50718 16.2656 9.94516C15.6234 10.8425 15.4163 11.1319 15.8695 11.5748ZM7.32477 7.86751C6.92714 15.3923 14.1341 12.5221 14.1341 12.5221C13.5356 12.7294 13.3693 12.4147 12.8539 11.4395L12.8539 11.4395C12.6022 10.9633 12.2673 10.3296 11.7581 9.52231C10.2062 7.06135 7.32477 7.86751 7.32477 7.86751ZM18.2382 11.8271C18.2382 11.8271 25.6701 14.052 20.686 19.7036C20.686 19.7036 17.9267 18.5464 18.2382 15.654C18.3404 14.7056 18.4712 14.0011 18.5696 13.4717C18.7712 12.3865 18.8362 12.0363 18.2382 11.8271ZM16.2848 13.5617C16.2848 13.5617 17.6171 21.204 10.3337 19.2727C10.3337 19.2727 10.1354 16.2873 12.8619 15.2728C13.7562 14.94 14.4449 14.742 14.9625 14.5933L14.9625 14.5933L14.9626 14.5932L14.9626 14.5932C16.023 14.2885 16.365 14.1901 16.2848 13.5617ZM25.4787 10.2753C20.9232 4.27312 17.2738 11.1185 17.2738 11.1185C17.5971 10.5736 17.9272 10.7065 18.9503 11.1182C19.45 11.3193 20.1151 11.587 21.0255 11.8747C23.7994 12.7514 25.4787 10.2753 25.4787 10.2753Z" fill="white"/>
<path d="M9.95026 10.3422L10.3723 10.074C11.2986 11.5319 12.5009 12.2492 14.0012 12.2492V12.7492C12.3227 12.7492 10.965 11.9392 9.95026 10.3422Z" fill="#EA1A1A"/>
<path fill-rule="evenodd" clip-rule="evenodd" d="M21.75 10.75C22.1642 10.75 22.5 10.4142 22.5 10C22.5 9.58579 22.1642 9.25 21.75 9.25C21.3358 9.25 21 9.58579 21 10C21 10.4142 21.3358 10.75 21.75 10.75Z" fill="#EA1A1A"/>
<path fill-rule="evenodd" clip-rule="evenodd" d="M19.9586 15.7281C20.3728 15.7281 20.7086 15.3923 20.7086 14.9781C20.7086 14.5639 20.3728 14.2281 19.9586 14.2281C19.5443 14.2281 19.2086 14.5639 19.2086 14.9781C19.2086 15.3923 19.5443 15.7281 19.9586 15.7281Z" fill="#EA1A1A"/>
<path fill-rule="evenodd" clip-rule="evenodd" d="M13.9586 17.7281C14.3728 17.7281 14.7086 17.3923 14.7086 16.9781C14.7086 16.5639 14.3728 16.2281 13.9586 16.2281C13.5443 16.2281 13.2086 16.5639 13.2086 16.9781C13.2086 17.3923 13.5443 17.7281 13.9586 17.7281Z" fill="#EA1A1A"/>
<path fill-rule="evenodd" clip-rule="evenodd" d="M9.95856 10.7281C10.3728 10.7281 10.7086 10.3923 10.7086 9.97807C10.7086 9.56386 10.3728 9.22807 9.95856 9.22807C9.54434 9.22807 9.20856 9.56386 9.20856 9.97807C9.20856 10.3923 9.54434 10.7281 9.95856 10.7281Z" fill="#EA1A1A"/>
<path fill-rule="evenodd" clip-rule="evenodd" d="M15.9586 7.72807C16.3728 7.72807 16.7086 7.39229 16.7086 6.97807C16.7086 6.56386 16.3728 6.22807 15.9586 6.22807C15.5443 6.22807 15.2086 6.56386 15.2086 6.97807C15.2086 7.39229 15.5443 7.72807 15.9586 7.72807Z" fill="#EA1A1A"/>
<path d="M15.6346 7.05276L16.0741 7.29103C15.2415 8.82702 15.1828 10.2438 15.8879 11.5698L15.4464 11.8045C14.6591 10.3239 14.7252 8.73042 15.6346 7.05276Z" fill="#EA1A1A"/>
<path d="M22.015 9.68583L21.94 10.1802C19.9842 9.88368 18.5203 10.2963 17.5178 11.4096L17.1463 11.075C18.2709 9.82604 19.9039 9.36579 22.015 9.68583Z" fill="#EA1A1A"/>
<path d="M20.3512 15.3649L19.861 15.4635C19.4707 13.5243 18.5823 12.2897 17.1933 11.7285L17.3806 11.2649C18.9389 11.8945 19.9299 13.2716 20.3512 15.3649Z" fill="#EA1A1A"/>
<path d="M13.9065 17.15L13.6462 16.7232C15.335 15.6931 16.1912 14.436 16.2435 12.9388L16.7432 12.9563C16.6845 14.636 15.7294 16.0382 13.9065 17.15Z" fill="#EA1A1A"/>
</g>
</g>
<defs>
<clipPath id="clip0_270_67538">
<rect width="32" height="24" fill="white"/>
</clipPath>
</defs>
</svg>

<svg width="32" height="24" fill="none" xmlns="http://www.w3.org/2000/svg">
  <mask id="a" maskUnits="userSpaceOnUse" x="0" y="0" width="32" height="24">
    <path fill="#fff" d="M0 0h32v24H0z"/>
  </mask>
  <g mask="url(#a)">
    <path fill-rule="evenodd" clip-rule="evenodd" d="M0 0v24h32V0H0z" fill="#EA1A1A"/>
    <mask id="b" maskUnits="userSpaceOnUse" x="0" y="0" width="32" height="24">
      <path fill-rule="evenodd" clip-rule="evenodd" d="M0 0v24h32V0H0z" fill="#fff"/>
    </mask>
    <g mask="url(#b)">
      <path fill-rule="evenodd" clip-rule="evenodd" d="M15.87 11.575s-5.79-5.163 1.119-8.172c0 0 2.009 2.217.502 4.705-.495.816-.912 1.4-1.225 1.837-.643.897-.85 1.187-.396 1.63zM7.325 7.868c-.398 7.524 6.81 4.654 6.81 4.654-.6.207-.766-.107-1.281-1.082a27.073 27.073 0 00-1.096-1.918c-1.552-2.46-4.433-1.654-4.433-1.654zm10.913 3.96s7.432 2.224 2.448 7.876c0 0-2.76-1.158-2.448-4.05a26.51 26.51 0 01.332-2.182c.201-1.085.266-1.436-.332-1.645zm-1.953 1.734s1.332 7.642-5.951 5.71c0 0-.199-2.985 2.528-4a26.9 26.9 0 012.1-.679c1.061-.304 1.403-.403 1.323-1.031zm9.194-3.287c-4.556-6.002-8.205.843-8.205.843.323-.544.653-.412 1.676 0 .5.201 1.165.469 2.076.757 2.773.876 4.453-1.6 4.453-1.6z" fill="#fff"/>
      <path d="M9.95 10.342l.422-.268c.927 1.458 2.129 2.175 3.63 2.175v.5c-1.68 0-3.037-.81-4.052-2.407z" fill="#EA1A1A"/>
      <path fill-rule="evenodd" clip-rule="evenodd" d="M21.75 10.75a.75.75 0 100-1.5.75.75 0 000 1.5zm-1.791 4.978a.75.75 0 100-1.5.75.75 0 000 1.5zm-6 2a.75.75 0 100-1.5.75.75 0 000 1.5zm-4-7a.75.75 0 100-1.5.75.75 0 000 1.5zm6-3a.75.75 0 100-1.5.75.75 0 000 1.5z" fill="#EA1A1A"/>
      <path d="M15.635 7.053l.44.238c-.833 1.536-.892 2.953-.187 4.279l-.442.235c-.787-1.481-.72-3.075.189-4.752zm6.38 2.633l-.075.494c-1.956-.296-3.42.116-4.422 1.23l-.372-.335c1.125-1.249 2.758-1.71 4.869-1.39z" fill="#EA1A1A"/>
      <path d="M20.351 15.365l-.49.098c-.39-1.939-1.279-3.173-2.668-3.734l.188-.464c1.558.63 2.549 2.007 2.97 4.1zm-6.445 1.785l-.26-.427c1.689-1.03 2.545-2.287 2.598-3.784l.5.017c-.06 1.68-1.015 3.082-2.838 4.194z" fill="#EA1A1A"/>
    </g>
  </g>
</svg>
